svgs/light/file-contract.svg

<svg xmlns="http://www.w3.org/2000/svg" viewBox="0 0 384 512"><!-- Font Awesome Pro 6.0.0-alpha2 by @fontawesome - https://fontawesome.com License - https://fontawesome.com/license (Commercial License) --><path d="M365.256 125.254L258.746 18.746C246.744 6.742 230.465 0 213.49 0H64C28.654 0 0 28.654 0 64V448C0 483.346 28.654 512 64 512H320C355.348 512 384 483.346 384 448V170.51C384 153.535 377.258 137.258 365.256 125.254ZM224 34.076C228.477 35.643 232.666 37.922 236.119 41.375L342.627 147.879C346.08 151.332 348.357 155.523 349.924 160H240C231.188 160 224 152.828 224 144V34.076ZM352 448C352 465.645 337.645 480 320 480H64C46.355 480 32 465.645 32 448V64C32 46.355 46.355 32 64 32H192V144C192 170.469 213.531 192 240 192H352V448ZM80 96H144C152.844 96 160 88.844 160 80S152.844 64 144 64H80C71.156 64 64 71.156 64 80S71.156 96 80 96ZM80 160H144C152.844 160 160 152.844 160 144S152.844 128 144 128H80C71.156 128 64 135.156 64 144S71.156 160 80 160ZM180.625 363.375L166.75 321.75C163.5 311.875 154.375 305.25 144 305.25S124.5 311.875 121.25 321.75L103 376.375C101.5 380.875 97.25 384 92.375 384H80C71.125 384 64 391.125 64 400S71.125 416 80 416H92.375C111 416 127.5 404.125 133.375 386.5L144 354.625L160.875 405C162.875 411.25 168.375 415.5 174.875 416H176C182 416 187.625 412.625 190.25 407.125L198 391.75C200.75 386.25 205.875 385.625 208 385.625S215.25 386.25 218.125 392.125C225.5 406.875 240.375 416 256.75 416H304C312.875 416 320 408.875 320 400S312.875 384 304 384H256.75C252.625 384 248.625 381.5 246.625 377.5C234.75 353.625 200.375 347.125 180.625 363.375Z"/></svg>

<svg xmlns="http://www.w3.org/2000/svg" viewBox="0 0 384 512"><!--! Font Awesome Pro 6.0.0-alpha3 by @fontawesome - https://fontawesome.com License - https://fontawesome.com/license (Commercial License) --><path d="M365.3 125.3l-106.5-106.5C246.7 6.742 230.5 0 213.5 0H64C28.65 0 0 28.65 0 64l.0065 384c0 35.35 28.65 64 64 64H320c35.35 0 64-28.65 64-64V170.5C384 153.5 377.3 137.3 365.3 125.3zM224 34.08c4.477 1.566 8.666 3.846 12.12 7.299l106.5 106.5C346.1 151.3 348.4 155.5 349.9 160H240C231.2 160 224 152.8 224 144V34.08zM352 448c0 17.64-14.36 32-32 32H64c-17.64 0-32-14.36-32-32V64c0-17.64 14.36-32 32-32h128v112C192 170.5 213.5 192 240 192H352V448zM80 96h64C152.8 96 160 88.84 160 80S152.8 64 144 64h-64C71.16 64 64 71.16 64 80S71.16 96 80 96zM80 160h64C152.8 160 160 152.8 160 144S152.8 128 144 128h-64C71.16 128 64 135.2 64 144S71.16 160 80 160zM180.6 363.4l-13.88-41.63C163.5 311.9 154.4 305.3 144 305.3s-19.5 6.625-22.75 16.5L103 376.4C101.5 380.9 97.25 384 92.38 384H80C71.13 384 64 391.1 64 400S71.13 416 80 416h12.38c18.62 0 35.13-11.88 41-29.5L144 354.6L160.9 405c2 6.25 7.5 10.5 14 11H176c5.1 0 11.62-3.375 14.25-8.875l7.75-15.38c2.75-5.5 7.875-6.125 10-6.125s7.25 .625 10.12 6.5C225.5 406.9 240.4 416 256.8 416H304c8.875 0 16-7.125 16-16S312.9 384 304 384h-47.25c-4.125 0-8.125-2.5-10.12-6.5C234.8 353.6 200.4 347.1 180.6 363.4z"/></svg>
